icons/op-settings3-24.svg

<svg width="24" height="24" viewBox="0 0 24 24" fill="none" xmlns="http://www.w3.org/2000/svg">
<path d="M19.8731 7.03611L17.7159 9.13322L15.3365 8.63242L14.829 6.28491L16.9862 4.1565C16.6372 4.0939 16.2883 4.0313 15.9393 4C13.6869 4 11.8469 5.81541 11.8469 8.03772C11.8469 8.50722 11.9421 8.94542 12.1007 9.38362L4.74067 16.5827C3.8524 17.4278 3.75722 18.7424 4.48688 19.4936C5.24826 20.2448 6.58067 20.1509 7.46895 19.2745L14.8924 12.0128C14.9241 11.9815 14.9241 11.9502 14.9559 11.9502C15.2414 12.0128 15.5903 12.0754 15.9076 12.0754C18.16 12.0754 20 10.2913 20 8.06902C20 7.69342 19.9366 7.34911 19.8731 7.03611Z" fill="black"/>
</svg>

<svg xmlns="http://www.w3.org/2000/svg" width="24" height="24" viewBox="0 0 24 24"><path d="m19.873 7.036-2.157 2.097-2.38-.501-.507-2.347 2.157-2.128c-.349-.063-.698-.126-1.047-.157-2.252 0-4.092 1.815-4.092 4.038 0 .469.095.907.254 1.346l-7.36 7.199c-.889.845-.984 2.159-.254 2.911.761.751 2.094.657 2.982-.22l7.423-7.261c.032-.031.032-.063.064-.063.285.063.634.125.952.125 2.252 0 4.092-1.784 4.092-4.006 0-.376-.063-.72-.127-1.033Z"/></svg>
